static/img/kroki/bd4eb5bf9647931e7420022e0166a46b.svg

<?xml version="1.0" encoding="us-ascii" standalone="no"?><svg xmlns="http://www.w3.org/2000/svg" xmlns:xlink="http://www.w3.org/1999/xlink" contentStyleType="text/css" height="951px" preserveAspectRatio="none" style="width:376px;height:951px;" version="1.1" viewBox="0 0 376 951" width="376px" zoomAndPan="magnify"><defs/><g><!--class aws_resource--><g id="elem_aws_resource"><rect codeLine="22" fill="#3D176E" height="74.0859" id="aws_resource" rx="2.5" ry="2.5" style="stroke:#000D19;stroke-width:0.5;" width="155" x="110.5" y="438.76"/><ellipse cx="125.5" cy="458.6545" fill="#ADD1B2" rx="11" ry="11" style="stroke:#181818;stroke-width:1.0;"/><path d="M128.4688,464.2952 Q127.8906,464.592 127.25,464.7327 Q126.6094,464.8889 125.9063,464.8889 Q123.4063,464.8889 122.0781,463.2483 Q120.7656,461.592 120.7656,458.467 Q120.7656,455.342 122.0781,453.6858 Q123.4063,452.0295 125.9063,452.0295 Q126.6094,452.0295 127.25,452.1858 Q127.9063,452.342 128.4688,452.6389 L128.4688,455.3577 Q127.8438,454.7795 127.25,454.5139 Q126.6563,454.2327 126.0313,454.2327 Q124.6875,454.2327 124,455.3108 Q123.3125,456.3733 123.3125,458.467 Q123.3125,460.5608 124,461.6389 Q124.6875,462.7014 126.0313,462.7014 Q126.6563,462.7014 127.25,462.4358 Q127.8438,462.1545 128.4688,461.5764 L128.4688,464.2952 Z " fill="#000000"/><text fill="#D9B8FF" font-family="Helvetica" font-size="17" lengthAdjust="spacing" textLength="113" x="144.5" y="464.5398">aws_resource</text><line style="stroke:#000D19;stroke-width:0.5;" x1="111.5" x2="264.5" y1="478.5491" y2="478.5491"/><text fill="#D9B8FF" font-family="sans-serif" font-size="14" font-weight="bold" lengthAdjust="spacing" textLength="26" x="121.5" y="500.5442">arn</text><text fill="#D9B8FF" font-family="sans-serif" font-size="14" lengthAdjust="spacing" textLength="48" x="147.5" y="500.5442">: string</text></g><!--class aws_sns_topic--><g id="elem_aws_sns_topic"><rect codeLine="25" fill="#3D176E" height="310.7578" id="aws_sns_topic" rx="2.5" ry="2.5" style="stroke:#000D19;stroke-width:0.5;" width="362" x="7" y="633.84"/><ellipse cx="119.75" cy="653.7345" fill="#ADD1B2" rx="11" ry="11" style="stroke:#181818;stroke-width:1.0;"/><path d="M122.7188,659.3752 Q122.1406,659.672 121.5,659.8127 Q120.8594,659.9689 120.1563,659.9689 Q117.6563,659.9689 116.3281,658.3283 Q115.0156,656.672 115.0156,653.547 Q115.0156,650.422 116.3281,648.7658 Q117.6563,647.1095 120.1563,647.1095 Q120.8594,647.1095 121.5,647.2658 Q122.1563,647.422 122.7188,647.7189 L122.7188,650.4377 Q122.0938,649.8595 121.5,649.5939 Q120.9063,649.3127 120.2813,649.3127 Q118.9375,649.3127 118.25,650.3908 Q117.5625,651.4533 117.5625,653.547 Q117.5625,655.6408 118.25,656.7189 Q118.9375,657.7814 120.2813,657.7814 Q120.9063,657.7814 121.5,657.5158 Q122.0938,657.2345 122.7188,656.6564 L122.7188,659.3752 Z " fill="#000000"/><text fill="#D9B8FF" font-family="Helvetica" font-size="17" lengthAdjust="spacing" textLength="118" x="145.25" y="659.6198">aws_sns_topic</text><line style="stroke:#000D19;stroke-width:0.5;" x1="8" x2="368" y1="673.6291" y2="673.6291"/><text fill="#D9B8FF" font-family="sans-serif" font-size="14" font-weight="bold" lengthAdjust="spacing" textLength="275" x="18" y="695.6242">topic_content_based_deduplication</text><text fill="#D9B8FF" font-family="sans-serif" font-size="14" lengthAdjust="spacing" textLength="65" x="293" y="695.6242">: boolean</text><text fill="#D9B8FF" font-family="sans-serif" font-size="14" font-weight="bold" lengthAdjust="spacing" textLength="162" x="18" y="721.9211">topic_delivery_policy</text><text fill="#D9B8FF" font-family="sans-serif" font-size="14" lengthAdjust="spacing" textLength="48" x="180" y="721.9211">: string</text><text fill="#D9B8FF" font-family="sans-serif" font-size="14" font-weight="bold" lengthAdjust="spacing" textLength="239" x="18" y="748.2179">topic_effective_delivery_policy</text><text fill="#D9B8FF" font-family="sans-serif" font-size="14" lengthAdjust="spacing" textLength="48" x="257" y="748.2179">: string</text><text fill="#D9B8FF" font-family="sans-serif" font-size="14" font-weight="bold" lengthAdjust="spacing" textLength="118" x="18" y="774.5148">topic_fifo_topic</text><text fill="#D9B8FF" font-family="sans-serif" font-size="14" lengthAdjust="spacing" textLength="65" x="136" y="774.5148">: boolean</text><text fill="#D9B8FF" font-family="sans-serif" font-size="14" font-weight="bold" lengthAdjust="spacing" textLength="196" x="18" y="800.8117">topic_kms_master_key_id</text><text fill="#D9B8FF" font-family="sans-serif" font-size="14" lengthAdjust="spacing" textLength="48" x="214" y="800.8117">: string</text><text fill="#D9B8FF" font-family="sans-serif" font-size="14" font-weight="bold" lengthAdjust="spacing" textLength="97" x="18" y="827.1086">topic_owner</text><text fill="#D9B8FF" font-family="sans-serif" font-size="14" lengthAdjust="spacing" textLength="48" x="115" y="827.1086">: string</text><text fill="#D9B8FF" font-family="sans-serif" font-size="14" font-weight="bold" lengthAdjust="spacing" textLength="92" x="18" y="853.4054">topic_policy</text><text fill="#D9B8FF" font-family="sans-serif" font-size="14" lengthAdjust="spacing" textLength="48" x="110" y="853.4054">: string</text><text fill="#D9B8FF" font-family="sans-serif" font-size="14" font-weight="bold" lengthAdjust="spacing" textLength="240" x="18" y="879.7023">topic_subscriptions_confirmed</text><text fill="#D9B8FF" font-family="sans-serif" font-size="14" lengthAdjust="spacing" textLength="44" x="258" y="879.7023">: int64</text><text fill="#D9B8FF" font-family="sans-serif" font-size="14" font-weight="bold" lengthAdjust="spacing" textLength="220" x="18" y="905.9992">topic_subscriptions_deleted</text><text fill="#D9B8FF" font-family="sans-serif" font-size="14" lengthAdjust="spacing" textLength="44" x="238" y="905.9992">: int64</text><text fill="#D9B8FF" font-family="sans-serif" font-size="14" font-weight="bold" lengthAdjust="spacing" textLength="224" x="18" y="932.2961">topic_subscriptions_pending</text><text fill="#D9B8FF" font-family="sans-serif" font-size="14" lengthAdjust="spacing" textLength="44" x="242" y="932.2961">: int64</text></g><!--class resource--><g id="elem_resource"><rect codeLine="37" fill="#3D176E" height="310.7578" id="resource" rx="2.5" ry="2.5" style="stroke:#000D19;stroke-width:0.5;" width="227" x="74.5" y="7"/><ellipse cx="143.25" cy="26.8945" fill="#ADD1B2" rx="11" ry="11" style="stroke:#181818;stroke-width:1.0;"/><path d="M146.2188,32.5352 Q145.6406,32.832 145,32.9727 Q144.3594,33.1289 143.6563,33.1289 Q141.1563,33.1289 139.8281,31.4883 Q138.5156,29.832 138.5156,26.707 Q138.5156,23.582 139.8281,21.9258 Q141.1563,20.2695 143.6563,20.2695 Q144.3594,20.2695 145,20.4258 Q145.6563,20.582 146.2188,20.8789 L146.2188,23.5977 Q145.5938,23.0195 145,22.7539 Q144.4063,22.4727 143.7813,22.4727 Q142.4375,22.4727 141.75,23.5508 Q141.0625,24.6133 141.0625,26.707 Q141.0625,28.8008 141.75,29.8789 Q142.4375,30.9414 143.7813,30.9414 Q144.4063,30.9414 145,30.6758 Q145.5938,30.3945 146.2188,29.8164 L146.2188,32.5352 Z " fill="#000000"/><text fill="#D9B8FF" font-family="Helvetica" font-size="17" lengthAdjust="spacing" textLength="71" x="168.75" y="32.7798">resource</text><line style="stroke:#000D19;stroke-width:0.5;" x1="75.5" x2="300.5" y1="46.7891" y2="46.7891"/><text fill="#D9B8FF" font-family="sans-serif" font-size="14" font-weight="bold" lengthAdjust="spacing" textLength="29" x="85.5" y="68.7842">age</text><text fill="#D9B8FF" font-family="sans-serif" font-size="14" lengthAdjust="spacing" textLength="66" x="114.5" y="68.7842">: duration</text><text fill="#D9B8FF" font-family="sans-serif" font-size="14" font-weight="bold" lengthAdjust="spacing" textLength="43" x="85.5" y="95.0811">atime</text><text fill="#D9B8FF" font-family="sans-serif" font-size="14" lengthAdjust="spacing" textLength="70" x="128.5" y="95.0811">: datetime</text><text fill="#D9B8FF" font-family="sans-serif" font-size="14" font-weight="bold" lengthAdjust="spacing" textLength="43" x="85.5" y="121.3779">ctime</text><text fill="#D9B8FF" font-family="sans-serif" font-size="14" lengthAdjust="spacing" textLength="70" x="128.5" y="121.3779">: datetime</text><text fill="#D9B8FF" font-family="sans-serif" font-size="14" font-weight="bold" lengthAdjust="spacing" textLength="14" x="85.5" y="147.6748">id</text><text fill="#D9B8FF" font-family="sans-serif" font-size="14" lengthAdjust="spacing" textLength="48" x="99.5" y="147.6748">: string</text><text fill="#D9B8FF" font-family="sans-serif" font-size="14" font-weight="bold" lengthAdjust="spacing" textLength="33" x="85.5" y="173.9717">kind</text><text fill="#D9B8FF" font-family="sans-serif" font-size="14" lengthAdjust="spacing" textLength="48" x="118.5" y="173.9717">: string</text><text fill="#D9B8FF" font-family="sans-serif" font-size="14" font-weight="bold" lengthAdjust="spacing" textLength="90" x="85.5" y="200.2686">last_access</text><text fill="#D9B8FF" font-family="sans-serif" font-size="14" lengthAdjust="spacing" textLength="66" x="175.5" y="200.2686">: duration</text><text fill="#D9B8FF" font-family="sans-serif" font-size="14" font-weight="bold" lengthAdjust="spacing" textLength="90" x="85.5" y="226.5654">last_update</text><text fill="#D9B8FF" font-family="sans-serif" font-size="14" lengthAdjust="spacing" textLength="66" x="175.5" y="226.5654">: duration</text><text fill="#D9B8FF" font-family="sans-serif" font-size="14" font-weight="bold" lengthAdjust="spacing" textLength="48" x="85.5" y="252.8623">mtime</text><text fill="#D9B8FF" font-family="sans-serif" font-size="14" lengthAdjust="spacing" textLength="70" x="133.5" y="252.8623">: datetime</text><text fill="#D9B8FF" font-family="sans-serif" font-size="14" font-weight="bold" lengthAdjust="spacing" textLength="43" x="85.5" y="279.1592">name</text><text fill="#D9B8FF" font-family="sans-serif" font-size="14" lengthAdjust="spacing" textLength="48" x="128.5" y="279.1592">: string</text><text fill="#D9B8FF" font-family="sans-serif" font-size="14" font-weight="bold" lengthAdjust="spacing" textLength="34" x="85.5" y="305.4561">tags</text><text fill="#D9B8FF" font-family="sans-serif" font-size="14" lengthAdjust="spacing" textLength="171" x="119.5" y="305.4561">: dictionary[string, string]</text></g><!--reverse link resource to aws_resource--><g id="link_resource_aws_resource"><path codeLine="49" d="M188,338.97 C188,376.78 188,413 188,438.51 " fill="none" id="resource-backto-aws_resource" style="stroke:#FFAF37;stroke-width:2.0;"/><polygon fill="none" points="181,339.18,188,319.18,195,339.18,181,339.18" style="stroke:#FFAF37;stroke-width:2.0;"/></g><!--reverse link aws_resource to aws_sns_topic--><g id="link_aws_resource_aws_sns_topic"><path codeLine="50" d="M188,534.07 C188,562.32 188,597.89 188,633.4 " fill="none" id="aws_resource-backto-aws_sns_topic" style="stroke:#FFAF37;stroke-width:2.0;"/><polygon fill="none" points="181,534.13,188,514.13,195,534.13,181,534.13" style="stroke:#FFAF37;stroke-width:2.0;"/></g><!--SRC=[ZPJBRjim44Nt_We2sHarO2Tj70VT90QATXCKJNT5GOp8eKrO98KX5KDz_7j9ARRrSjoTSETexjpHG5ijaQ4fGiKCcWp9J_nEsm8837iWSlkronsnAwL0tIpxnK_EXel04nXadp5_mQ05z8dlMors5hrdrwtI8uZTXbnfPTC-45WVIsX3YrhduFr32AIpCc1h6BdAxfJga_scLpToiRp50UP88hqYy_bSBbPzvABLcxcFnBF-XMpHNjgJ2pWOSs1HKszEcOZMa8EWX_hP6R-2bDfks8UMzgsPYInIHt_UWdJxH2l8VTl61oHqeIfmFKY5gpkfbgFmbtEmI9jZiFUSqBkI1BBVa-aKo4wdzx41nI4cVrkOjvu7LsXHS_KJ5p5tl2EUWKV99Sgoo6Fue5tT9NCkHx17N6AkNv0gNhY8LIsZ0u5AeGWH-WzMQUMQYSQyTiPp0saHV8SLrtAaWzl7_O_ePorzcNb1kaW1VKglD1ciMsiRRj-V0MCM39Un0cqwb1DsM7_t2sqm4RAaUiz92Teq6WHCpr4J8rfl1_5QkaBq2Xo4Y7-GdaDTAOlKgrSn8puM6kcqFDWq7RL8hm5LFvhQkrVcPunw3Fdnpsmswrpcf7Ecf_hn9Fy1]--></g></svg>

<svg xmlns="http://www.w3.org/2000/svg" width="376" height="951" preserveAspectRatio="none" style="width:376px;height:951px"><rect width="155" height="74.086" x="110.5" y="438.76" fill="#3D176E" rx="2.5" ry="2.5" style="stroke:#000d19;stroke-width:.5"/><circle cx="125.5" cy="458.654" r="11" fill="#ADD1B2" style="stroke:#181818;stroke-width:1"/><path d="M128.469 464.295q-.578.297-1.219.438-.64.156-1.344.156-2.5 0-3.828-1.64-1.312-1.657-1.312-4.782t1.312-4.781q1.328-1.656 3.828-1.656.703 0 1.344.156.656.156 1.219.453v2.719q-.625-.579-1.219-.844-.594-.281-1.219-.281-1.344 0-2.031 1.078-.688 1.062-.688 3.156 0 2.094.688 3.172.688 1.062 2.031 1.062.625 0 1.219-.265.594-.281 1.219-.86v2.72Z"/><text x="144.5" y="464.54" fill="#D9B8FF" font-family="Helvetica" font-size="17" textLength="113">aws_resource</text><path d="M111.5 478.549h153" style="stroke:#000d19;stroke-width:.5"/><text x="121.5" y="500.544" fill="#D9B8FF" font-family="sans-serif" font-size="14" font-weight="bold" textLength="26">arn</text><text x="147.5" y="500.544" fill="#D9B8FF" font-family="sans-serif" font-size="14" textLength="48">: string</text><rect width="362" height="310.758" x="7" y="633.84" fill="#3D176E" rx="2.5" ry="2.5" style="stroke:#000d19;stroke-width:.5"/><circle cx="119.75" cy="653.735" r="11" fill="#ADD1B2" style="stroke:#181818;stroke-width:1"/><path d="M122.719 659.375q-.578.297-1.219.438-.64.156-1.344.156-2.5 0-3.828-1.64-1.312-1.657-1.312-4.782t1.312-4.781q1.328-1.656 3.828-1.656.703 0 1.344.156.656.156 1.219.453v2.719q-.625-.578-1.219-.844-.594-.281-1.219-.281-1.344 0-2.031 1.078-.688 1.062-.688 3.156 0 2.094.688 3.172.688 1.062 2.031 1.062.625 0 1.219-.265.594-.281 1.219-.86v2.72Z"/><text x="145.25" y="659.62" fill="#D9B8FF" font-family="Helvetica" font-size="17" textLength="118">aws_sns_topic</text><path d="M8 673.629h360" style="stroke:#000d19;stroke-width:.5"/><text x="18" y="695.624" fill="#D9B8FF" font-family="sans-serif" font-size="14" font-weight="bold" textLength="275">topic_content_based_deduplication</text><text x="293" y="695.624" fill="#D9B8FF" font-family="sans-serif" font-size="14" textLength="65">: boolean</text><text x="18" y="721.921" fill="#D9B8FF" font-family="sans-serif" font-size="14" font-weight="bold" textLength="162">topic_delivery_policy</text><text x="180" y="721.921" fill="#D9B8FF" font-family="sans-serif" font-size="14" textLength="48">: string</text><text x="18" y="748.218" fill="#D9B8FF" font-family="sans-serif" font-size="14" font-weight="bold" textLength="239">topic_effective_delivery_policy</text><text x="257" y="748.218" fill="#D9B8FF" font-family="sans-serif" font-size="14" textLength="48">: string</text><text x="18" y="774.515" fill="#D9B8FF" font-family="sans-serif" font-size="14" font-weight="bold" textLength="118">topic_fifo_topic</text><text x="136" y="774.515" fill="#D9B8FF" font-family="sans-serif" font-size="14" textLength="65">: boolean</text><text x="18" y="800.812" fill="#D9B8FF" font-family="sans-serif" font-size="14" font-weight="bold" textLength="196">topic_kms_master_key_id</text><text x="214" y="800.812" fill="#D9B8FF" font-family="sans-serif" font-size="14" textLength="48">: string</text><text x="18" y="827.109" fill="#D9B8FF" font-family="sans-serif" font-size="14" font-weight="bold" textLength="97">topic_owner</text><text x="115" y="827.109" fill="#D9B8FF" font-family="sans-serif" font-size="14" textLength="48">: string</text><text x="18" y="853.405" fill="#D9B8FF" font-family="sans-serif" font-size="14" font-weight="bold" textLength="92">topic_policy</text><text x="110" y="853.405" fill="#D9B8FF" font-family="sans-serif" font-size="14" textLength="48">: string</text><text x="18" y="879.702" fill="#D9B8FF" font-family="sans-serif" font-size="14" font-weight="bold" textLength="240">topic_subscriptions_confirmed</text><text x="258" y="879.702" fill="#D9B8FF" font-family="sans-serif" font-size="14" textLength="44">: int64</text><text x="18" y="905.999" fill="#D9B8FF" font-family="sans-serif" font-size="14" font-weight="bold" textLength="220">topic_subscriptions_deleted</text><text x="238" y="905.999" fill="#D9B8FF" font-family="sans-serif" font-size="14" textLength="44">: int64</text><text x="18" y="932.296" fill="#D9B8FF" font-family="sans-serif" font-size="14" font-weight="bold" textLength="224">topic_subscriptions_pending</text><text x="242" y="932.296" fill="#D9B8FF" font-family="sans-serif" font-size="14" textLength="44">: int64</text><rect width="227" height="310.758" x="74.5" y="7" fill="#3D176E" rx="2.5" ry="2.5" style="stroke:#000d19;stroke-width:.5"/><circle cx="143.25" cy="26.895" r="11" fill="#ADD1B2" style="stroke:#181818;stroke-width:1"/><path d="M146.219 32.535q-.578.297-1.219.438-.64.156-1.344.156-2.5 0-3.828-1.64-1.312-1.657-1.312-4.782t1.312-4.781q1.328-1.656 3.828-1.656.703 0 1.344.156.656.156 1.219.453v2.719q-.625-.578-1.219-.844-.594-.281-1.219-.281-1.344 0-2.031 1.078-.688 1.062-.688 3.156 0 2.094.688 3.172.688 1.062 2.031 1.062.625 0 1.219-.265.594-.281 1.219-.86v2.72Z"/><text x="168.75" y="32.78" fill="#D9B8FF" font-family="Helvetica" font-size="17" textLength="71">resource</text><path d="M75.5 46.789h225" style="stroke:#000d19;stroke-width:.5"/><text x="85.5" y="68.784" fill="#D9B8FF" font-family="sans-serif" font-size="14" font-weight="bold" textLength="29">age</text><text x="114.5" y="68.784" fill="#D9B8FF" font-family="sans-serif" font-size="14" textLength="66">: duration</text><text x="85.5" y="95.081" fill="#D9B8FF" font-family="sans-serif" font-size="14" font-weight="bold" textLength="43">atime</text><text x="128.5" y="95.081" fill="#D9B8FF" font-family="sans-serif" font-size="14" textLength="70">: datetime</text><text x="85.5" y="121.378" fill="#D9B8FF" font-family="sans-serif" font-size="14" font-weight="bold" textLength="43">ctime</text><text x="128.5" y="121.378" fill="#D9B8FF" font-family="sans-serif" font-size="14" textLength="70">: datetime</text><text x="85.5" y="147.675" fill="#D9B8FF" font-family="sans-serif" font-size="14" font-weight="bold" textLength="14">id</text><text x="99.5" y="147.675" fill="#D9B8FF" font-family="sans-serif" font-size="14" textLength="48">: string</text><text x="85.5" y="173.972" fill="#D9B8FF" font-family="sans-serif" font-size="14" font-weight="bold" textLength="33">kind</text><text x="118.5" y="173.972" fill="#D9B8FF" font-family="sans-serif" font-size="14" textLength="48">: string</text><text x="85.5" y="200.269" fill="#D9B8FF" font-family="sans-serif" font-size="14" font-weight="bold" textLength="90">last_access</text><text x="175.5" y="200.269" fill="#D9B8FF" font-family="sans-serif" font-size="14" textLength="66">: duration</text><text x="85.5" y="226.565" fill="#D9B8FF" font-family="sans-serif" font-size="14" font-weight="bold" textLength="90">last_update</text><text x="175.5" y="226.565" fill="#D9B8FF" font-family="sans-serif" font-size="14" textLength="66">: duration</text><text x="85.5" y="252.862" fill="#D9B8FF" font-family="sans-serif" font-size="14" font-weight="bold" textLength="48">mtime</text><text x="133.5" y="252.862" fill="#D9B8FF" font-family="sans-serif" font-size="14" textLength="70">: datetime</text><text x="85.5" y="279.159" fill="#D9B8FF" font-family="sans-serif" font-size="14" font-weight="bold" textLength="43">name</text><text x="128.5" y="279.159" fill="#D9B8FF" font-family="sans-serif" font-size="14" textLength="48">: string</text><text x="85.5" y="305.456" fill="#D9B8FF" font-family="sans-serif" font-size="14" font-weight="bold" textLength="34">tags</text><text x="119.5" y="305.456" fill="#D9B8FF" font-family="sans-serif" font-size="14" textLength="171">: dictionary[string, string]</text><path fill="none" d="M188 338.97v99.54m-7-99.33 7-20 7 20h-14zm7 194.89v99.33m-7-99.27 7-20 7 20h-14z" style="stroke:#ffaf37;stroke-width:2"/></svg>
